X:248
T:Lord Nelson's March
O:No 248 Wm Clarke MS  Feltwell, Norfolk
N:q at beginning changed to cr
I:abc2nwc
M:4/4
L:1/8
K:G
"^*"D2|G2G3/2G/2 A2d3/2c/2|B3/2A/2 G3/2B/2 A2g3/2e/2|dB GB cB AG|Bc ^cd A2D2|
G2G3/2G/2 A2d3/2c/2|B3/2A/2 G3/2B/2 A2g3/2e/2|d3/2B/2 G3/2B/2 c3/2A/2 d3/2F/2|{A}G2G3/2G/2 G2:|
|:Bc|d4d/2g/2f/2g/2 a/2g/2f/2e/2|d4d/2g/2f/2g/2 a/2g/2f/2e/2|(3dBc  (3def  (3gfe  (3dcB|{B}A2A3/2A/2 A2D2|
G2G3/2G/2 A2d3/2c/2|B3/2A/2 G3/2B/2 A2g3/2e/2|d3/2B/2 G3/2B/2 c3/2A/2 d3/2F/2|{A}G2G3/2G/2 G2:|

